modules/hawcons-filled/icons/icon-8-football.svg

<?xml version="1.0" encoding="UTF-8" standalone="no"?>
<svg width="32px" height="32px" viewBox="0 0 32 32" version="1.1" xmlns="http://www.w3.org/2000/svg" xmlns:xlink="http://www.w3.org/1999/xlink" xmlns:sketch="http://www.bohemiancoding.com/sketch/ns">
    <!-- Generator: Sketch 3.0.3 (7891) - http://www.bohemiancoding.com/sketch -->
    <title>icon 8 football</title>
    <desc>Created with Sketch.</desc>
    <defs></defs>
    <g id="Page-1" stroke="none" stroke-width="1" fill="none" fill-rule="evenodd" sketch:type="MSPage">
        <g id="icon-8-football" sketch:type="MSArtboardGroup" fill="#929292">
            <path d="M20,17 L19,17 L19,19 L18,19 L18,17 L17,17 L17,19 L16,19 L16,17 L15,17 L15,19 L14,19 L14,17 L13,17 L13,19 L12,19 L12,17 L10,17 L10,16 L12,16 L12,14 L13,14 L13,16 L14,16 L14,16 L14,14 L15,14 L15,16 L16,16 L16,14 L17,14 L17,16 L18,16 L18,14 L19,14 L19,16 L20,16 L20,14 L21,14 L21,16 L23,16 L23,17 L21,17 L21,19 L20,19 L20,17 L20,17 Z M9,22.1766187 C10.9659889,23.2266518 13.4494334,24 16.5,24 C19.5505666,24 22.0340111,23.2266518 24,22.1766187 L24,22.1766187 L24,10.8233813 C22.0340111,9.77334817 19.5505666,9 16.5,9 C13.4494334,9 10.9659889,9.77334817 9,10.8233813 L9,22.1766187 L9,22.1766187 L9,22.1766187 Z M8,21.5929951 C4.54647004,19.3996313 3,16.5 3,16.5 C3,16.5 4.54647004,13.6003687 8,11.4070049 L8,21.5929951 L8,21.5929951 L8,21.5929951 Z M25,21.5929951 C28.45353,19.3996313 30,16.5 30,16.5 C30,16.5 28.45353,13.6003687 25,11.4070049 L25,21.5929951 L25,21.5929951 L25,21.5929951 Z" id="football" sketch:type="MSShapeGroup"></path>
        </g>
    </g>
</svg>

<svg width="32" height="32" viewBox="0 0 32 32" xmlns="http://www.w3.org/2000/svg"><path d="M20 17h-1v2h-1v-2h-1v2h-1v-2h-1v2h-1v-2h-1v2h-1v-2h-2v-1h2v-2h1v2h1v-2h1v2h1v-2h1v2h1v-2h1v2h1v-2h1v2h2v1h-2v2h-1v-2zM9 22.177C10.966 23.227 13.45 24 16.5 24s5.534-.773 7.5-1.823V10.823C22.034 9.773 19.55 9 16.5 9s-5.534.773-7.5 1.823v11.354zm-1-.584C4.546 19.4 3 16.5 3 16.5s1.546-2.9 5-5.093v10.186zm17 0c3.454-2.193 5-5.093 5-5.093s-1.546-2.9-5-5.093v10.186z" fill="#929292" fill-rule="evenodd"/></svg>
